projects/svn/images/icons/ph.svg

<svg width="30" height="30" viewBox="0 0 30 30" fill="none" xmlns="http://www.w3.org/2000/svg">
<g clip-path="url(#clip0_1315_9441)">
<path d="M14.8501 15.6682C14.0979 15.2445 12.657 14.3251 11.0902 12.7583C9.52299 11.1911 8.59318 9.73958 8.1627 8.98024L10.6901 6.42024L4.30814 0L1.16403 3.12342C-0.0299993 4.31727 -0.339265 6.13386 0.394074 7.64375C1.51303 9.94777 3.57792 13.4251 7.05949 16.9069C10.5412 20.3885 14.0186 22.4533 16.3226 23.5723C16.8685 23.8376 17.4544 23.9663 18.0367 23.9663C19.0646 23.9663 20.0807 23.5646 20.843 22.8023L23.9726 19.6619L17.4614 13.1399L14.8501 15.6682ZM19.5189 21.48C18.8887 22.1095 17.9329 22.2739 17.1402 21.889C14.9653 20.8327 11.6805 18.8813 8.38279 15.5836C5.08506 12.2858 3.1337 9.00111 2.07736 6.82618C1.69211 6.03333 1.85691 5.07697 2.48496 4.44892L4.29972 2.64606L8.05595 6.42481L5.90281 8.60579L6.16264 9.18916C6.20493 9.28401 7.22611 11.5408 9.76689 14.0816C12.3093 16.624 14.547 17.6239 14.641 17.6653L15.2167 17.9184L17.4392 15.7663L21.3296 19.6632L19.5189 21.48ZM17.3033 8.81508L12.8989 4.41083L17.3033 0.00640871L18.6266 1.32971L16.5279 3.42829H21.1817C22.7326 3.42829 23.9944 4.68751 23.9944 6.23548L24.0001 11.1466L22.1287 11.1489L22.123 6.23658C22.123 5.71949 21.7008 5.29981 21.1817 5.29981H16.4343L18.6266 7.49196L17.3033 8.81508Z" fill="white"/>
</g>
<defs>
<clipPath id="clip0_1315_9441">
<rect width="30" height="30" fill="white"/>
</clipPath>
</defs>
</svg>

<svg width="30" height="30" fill="none" xmlns="http://www.w3.org/2000/svg"><g clip-path="url(#clip0_1315_9441)"><path d="M14.85 15.668c-.752-.423-2.193-1.343-3.76-2.91C9.523 11.191 8.593 9.74 8.163 8.98l2.527-2.56L4.308 0 1.164 3.123a3.955 3.955 0 00-.77 4.52c1.119 2.305 3.184 5.782 6.665 9.264 3.482 3.482 6.96 5.546 9.264 6.665a3.916 3.916 0 001.714.394 3.968 3.968 0 002.806-1.164l3.13-3.14-6.512-6.522-2.61 2.528zm4.669 5.812c-.63.63-1.586.794-2.379.409-2.175-1.056-5.46-3.008-8.757-6.305C5.085 12.286 3.133 9 2.077 6.826a2.081 2.081 0 01.408-2.377L4.3 2.646l3.756 3.779-2.153 2.18.26.584c.042.095 1.063 2.352 3.604 4.893 2.542 2.542 4.78 3.542 4.874 3.583l.576.253 2.222-2.152 3.89 3.897-1.81 1.817zM17.303 8.815L12.9 4.411 17.303.006l1.324 1.324-2.1 2.098h4.655c1.55 0 2.812 1.26 2.812 2.807L24 11.147l-1.871.002-.006-4.912a.94.94 0 00-.941-.937h-4.748l2.193 2.192-1.324 1.323z" fill="#fff"/></g><defs><clipPath id="clip0_1315_9441"><path fill="#fff" d="M0 0h30v30H0z"/></clipPath></defs></svg>
